!!!OTL: VIVAT ES LEB EIN INFANTRIE
!!!ARE: Europa, Mitteleuropa, Deutschland, Hessen, Odenwald
!!!SCT: E1323
!!!YEM: Copyright 1995, estate of Helmut Schaffrath.
**kern
*ICvox
*Ivox
*M6/8
*k[f#]
*G:
{8d
=1
4g
8g
8g
8a
8b
=2
8b
8a
8a
8a
8b}
{8cc
=3
8dd
8ee
8dd
8cc
8b
8a
=4
2b
8r}
{16b
16cc
=5
4dd
8b
8dd
8ee
8dd
=6
2cc
8r}
{8b
=7
8b
8a
8a
8dd
8dd
8cc
=8
4b
8a
8b
8r}
{16b
16a
=9
4g
8g
8g
8a
8b
=10
8b
8a
8a
8a
8b}
{8cc
=11
8dd
8ee
8dd
8cc
8b
8a
=12
2b
8r}
==
!!!AGN: Staende -, Soldaten -, Kriegs - Lied
!!!ONB: ESAC (Essen Associative Code) Database: ERK3
!!!AMT: compound duple
!!!AIN: vox
!!!EED: Helmut Schaffrath
!!!EEV: 1.0
*-
